frontend/public/svg/interface/clock.svg

<svg width="161" height="155" viewBox="0 0 161 155" fill="none" xmlns="http://www.w3.org/2000/svg">
<g clip-path="url(#clip0)">
<path d="M158.715 93.6772C157.802 100.245 154.818 106.136 151.805 111.92C146.72 121.822 139.589 130.529 130.887 137.462C120.603 145.626 108.844 150.515 95.9904 152.771C88.0228 154.17 79.9963 155.188 71.859 154.774C52.2411 153.776 35.307 146.909 21.5437 132.492C15.7041 126.273 10.7406 119.285 6.79072 111.721C4.50991 107.47 3.65356 103.024 2.8853 98.4666C1.46538 90.0357 0.591533 81.6125 1.52498 72.9954C2.67737 62.3531 5.61243 52.3786 10.9177 43.1078C17.3494 31.654 26.1617 21.7158 36.7593 13.9646C47.3128 6.30798 59.2571 2.38546 72.1621 0.825729C85.8424 -0.937555 99.7449 0.512547 112.769 5.06085C125.547 9.5513 136.951 16.4031 144.663 27.8945C152.375 39.3859 157.726 51.7955 159.542 65.8408C161.05 77.4943 159.507 87.9798 158.715 93.6772ZM151.262 76.3042C151.197 68.1236 150.427 60.0325 147.463 52.4251C145.02 46.1571 142.117 36.608 137.175 31.6597C130.308 22.099 120.75 16.2616 109.925 12.4034C97.5833 7.91381 84.3234 6.55027 71.3271 8.43433C58.0477 10.352 46.1501 15.2312 36.1452 24.3003C33.1929 26.9822 30.3803 29.8139 27.7183 32.7848C16.4134 45.378 10.3178 60.4191 10.3243 85.1613C10.3282 100.587 17.9305 113.773 28.8189 125.043C40.3765 137.006 54.3094 143.003 70.6049 144.343C78.5187 144.991 86.3198 144.129 94.1022 142.926C117.373 139.33 133.983 126.736 144.693 105.822C151.148 93.2167 150.872 80.9374 151.262 76.3042Z" fill="black"/>
<path d="M87.7202 74.8117C89.3144 74.8117 90.5102 74.8117 91.706 74.8117C101.785 74.8253 111.863 74.8221 121.941 74.8766C123.26 74.8869 124.572 75.0575 125.85 75.3844C126.511 75.5219 127.105 75.885 127.529 76.4117C127.953 76.9383 128.182 77.5965 128.176 78.273C128.242 78.9481 128.077 79.6258 127.708 80.1952C127.339 80.764 126.787 81.1907 126.144 81.4041C124.474 81.9586 122.728 82.2511 120.968 82.2705C111.113 82.1823 101.259 81.9592 91.4048 81.7874C89.3008 81.7504 87.1942 81.7951 85.0935 81.6881C83.9942 81.6505 82.9066 81.454 81.8637 81.1045C80.2158 80.5143 79.5479 79.2516 79.6716 77.448C79.9308 73.6956 80.1115 69.9367 80.2495 66.1778C80.6977 53.9944 81.0987 41.8091 81.5593 29.6257C81.6635 28.4129 81.8559 27.2091 82.1351 26.0243C82.4389 24.3977 83.3886 23.4548 85.0916 23.458C86.8535 23.4613 87.6619 24.6112 87.9664 26.145C88.2145 27.337 88.346 28.5505 88.3589 29.7683C88.3473 42.8479 88.3065 55.9277 88.2365 69.008C88.2268 70.7623 87.9327 72.5153 87.7202 74.8117Z" fill="black"/>
</g>
<defs>
<clipPath id="clip0">
<rect width="160" height="155" fill="white" transform="translate(0.777344)"/>
</clipPath>
</defs>
</svg>

<svg xmlns="http://www.w3.org/2000/svg" width="161" height="155" fill="none" viewBox="0 0 161 155"><g fill="#000" clip-path="url(#a)"><path d="M158.715 93.677c-.913 6.568-3.897 12.459-6.91 18.243a78.5 78.5 0 0 1-20.918 25.542c-10.284 8.164-22.043 13.053-34.897 15.309-7.967 1.399-15.994 2.417-24.131 2.003-19.618-.998-36.552-7.865-50.315-22.282A93.7 93.7 0 0 1 6.79 111.721c-2.281-4.251-3.137-8.697-3.906-13.254-1.42-8.431-2.293-16.854-1.36-25.472 1.152-10.642 4.087-20.616 9.393-29.887a91.8 91.8 0 0 1 25.841-29.143C47.313 6.308 59.257 2.385 72.162.825a88.75 88.75 0 0 1 40.607 4.236c12.778 4.49 24.182 11.342 31.894 22.834 7.712 11.49 13.063 23.9 14.879 37.946 1.508 11.653-.035 22.139-.827 27.836m-7.453-17.373c-.065-8.18-.835-16.272-3.799-23.879-2.443-6.268-5.346-15.817-10.288-20.765-6.867-9.561-16.425-15.398-27.25-19.257a79.5 79.5 0 0 0-38.598-3.969C58.047 10.352 46.15 15.231 36.145 24.3a116 116 0 0 0-8.427 8.485c-11.305 12.593-17.4 27.634-17.394 52.376.004 15.426 7.606 28.612 18.495 39.882 11.558 11.963 25.49 17.96 41.786 19.3 7.914.648 15.715-.214 23.497-1.417 23.271-3.596 39.881-16.19 50.591-37.104 6.455-12.605 6.179-24.885 6.569-29.518"/><path d="M87.72 74.812h3.986c10.079.013 20.157.01 30.235.065 1.319.01 2.631.18 3.909.507a2.92 2.92 0 0 1 2.326 2.889 2.99 2.99 0 0 1-2.032 3.131 17 17 0 0 1-5.176.867c-9.855-.089-19.709-.312-29.563-.484-2.104-.037-4.21.008-6.311-.099a11.4 11.4 0 0 1-3.23-.584c-1.648-.59-2.316-1.852-2.192-3.656.259-3.752.44-7.511.578-11.27.448-12.184.849-24.369 1.31-36.552a25 25 0 0 1 .575-3.602c.304-1.626 1.254-2.57 2.957-2.566 1.761.003 2.57 1.153 2.874 2.687.249 1.192.38 2.406.393 3.623q-.017 19.62-.122 39.24c-.01 1.754-.304 3.507-.517 5.804"/></g><defs><clipPath id="a"><path fill="#fff" d="M.777 0h160v155h-160z"/></clipPath></defs></svg>
